images/facebook.svg

<svg fill="none" height="34" viewBox="0 0 34 34" width="34" xmlns="http://www.w3.org/2000/svg" xmlns:xlink="http://www.w3.org/1999/xlink"><clipPath id="a"><path d="m0 0h34v34h-34z"/></clipPath><g clip-path="url(#a)"><path d="m34 17c0-9.38885-7.6112-17-17-17-9.38885 0-17 7.61115-17 17 0 8.4851 6.21662 15.5181 14.3438 16.7935v-11.8794h-4.3165v-4.9141h4.3165v-3.7453c0-4.26064 2.538-6.61408 6.4211-6.61408 1.8594 0 3.8054.33203 3.8054.33203v4.18355h-2.1436c-2.1117 0-2.7705 1.3106-2.7705 2.6563v3.1875h4.7149l-.7537 4.9141h-3.9612v11.8794c8.1272-1.2754 14.3438-8.3084 14.3438-16.7935z" fill="#002922"/></g></svg>

<svg width="34" height="34" viewBox="0 0 34 34" fill="none" xmlns="http://www.w3.org/2000/svg">
<g clip-path="url(#clip0_149_366)">
<path d="M34 17C34 7.61115 26.3888 0 17 0C7.61115 0 0 7.61115 0 17C0 25.4851 6.21662 32.5181 14.3438 33.7935V21.9141H10.0273V17H14.3438V13.2547C14.3438 8.99406 16.8818 6.64062 20.7649 6.64062C22.6243 6.64062 24.5703 6.97265 24.5703 6.97265V11.1562H22.4267C20.315 11.1562 19.6562 12.4668 19.6562 13.8125V17H24.3711L23.6174 21.9141H19.6562V33.7935C27.7834 32.5181 34 25.4851 34 17Z" fill="#002922"/>
</g>
<defs>
<clipPath id="clip0_149_366">
<rect width="34" height="34" fill="white"/>
</clipPath>
</defs>
</svg>
